X:162
T:Lady Barnsleys Fancy THO4.162
M:2/4
L:1/8
Z:vmp. Peter Dunk 2010/11.from a transcription by Fynn Titford-Mock 2007
B:Thompson's Compleat Collection of 200 Favourite Country Dances Volume IV.
Q:1/4=140
K:A
e2 cd|e2 dc|dBGB|A"G.Fl.""_Vio."[cE][eC][aA,]|\
e2 cd|e2 dc|dBGB| A2A,2:|
|:BEGB| cecA|dBGB|A2A,2|BEGB|cecA|DBGB|A2A2:|
